icons/git/compare.svg

<svg width="32" height="32" viewBox="0 0 32 32" fill="none" xmlns="http://www.w3.org/2000/svg">
<path fill-rule="evenodd" clip-rule="evenodd" d="M25.5 23C24.1193 23 23 24.1193 23 25.5C23 26.8807 24.1193 28 25.5 28C26.8807 28 28 26.8807 28 25.5C28 24.1193 26.8807 23 25.5 23ZM24.5 10V21.1115C22.496 21.5662 21 23.3584 21 25.5C21 27.9853 23.0147 30 25.5 30C27.9853 30 30 27.9853 30 25.5C30 23.3584 28.504 21.5662 26.5 21.1115V10C26.5 7.23858 24.2614 5 21.5 5H17.4142L20.2071 2.20711L18.7929 0.792892L14.2929 5.29289L13.5858 6L14.2929 6.70711L18.7929 11.2071L20.2071 9.79289L17.4142 7H21.5C23.1569 7 24.5 8.34315 24.5 10ZM7.5 10.8885V22C7.5 23.6569 8.84315 25 10.5 25H14.5858L11.7929 22.2071L13.2071 20.7929L17.7071 25.2929L18.4142 26L17.7071 26.7071L13.2071 31.2071L11.7929 29.7929L14.5858 27H10.5C7.73858 27 5.5 24.7614 5.5 22V10.8885C3.49601 10.4338 2 8.64159 2 6.5C2 4.01472 4.01472 2 6.5 2C8.98528 2 11 4.01472 11 6.5C11 8.64159 9.50399 10.4338 7.5 10.8885ZM4 6.5C4 5.11929 5.11929 4 6.5 4C7.88071 4 9 5.11929 9 6.5C9 7.88072 7.88071 9 6.5 9C5.11929 9 4 7.88072 4 6.5Z" fill="black"/>
</svg>

<svg viewBox="0 0 32 32" xmlns="http://www.w3.org/2000/svg"><path fill-rule="evenodd" d="M25.5 23a2.5 2.5 0 100 5 2.5 2.5 0 000-5zm-1-13v11.111a4.502 4.502 0 001 8.889 4.5 4.5 0 001-8.889V10a5 5 0 00-5-5h-4.086l2.793-2.793L18.793.793l-4.5 4.5-.707.707.707.707 4.5 4.5 1.414-1.414L17.414 7H21.5a3 3 0 013 3zm-17 .889V22a3 3 0 003 3h4.086l-2.793-2.793 1.414-1.414 4.5 4.5.707.707-.707.707-4.5 4.5-1.414-1.414L14.586 27H10.5a5 5 0 01-5-5V10.889A4.502 4.502 0 016.5 2a4.5 4.5 0 011 8.889zM4 6.5a2.5 2.5 0 115 0 2.5 2.5 0 01-5 0z"/></svg>
